docs/img/icons/logos_gulp.svg

<svg width="46" height="108" viewBox="0 0 46 108" fill="none" xmlns="http://www.w3.org/2000/svg">
<path d="M35.4488 104.708L36.4239 87.4531L39.1165 82.5721C39.1165 82.5721 32.9881 85.2344 22.7281 85.2344C12.468 85.2344 6.43246 82.6214 6.43246 82.6214L9.45014 87.9458L10.5177 104.708C10.5177 106.505 16.0986 107.962 22.9833 107.962C29.8677 107.962 35.4488 106.505 35.4488 104.708" fill="#D34A47"/>
<path d="M32.3727 24.1291L34.4195 15.5377L45.7544 2.87233L42.7669 0.170227L30.7666 13.662L28.3901 23.9264C26.6014 23.8628 24.8119 23.8312 23.0223 23.8316C10.3838 23.8316 0.138184 25.3611 0.138184 27.2475C0.138184 29.1341 10.3838 30.6634 23.0223 30.6634C35.6606 30.6634 45.906 29.1341 45.906 27.2475C45.906 25.8584 40.3494 24.6628 32.3727 24.1291" fill="#D34A47"/>
<path d="M31.1821 28.9404C31.1821 28.9404 30.7388 29.0459 29.4348 29.0518C28.1305 29.0575 27.2043 29.0428 26.8354 28.686C26.7363 28.5902 26.682 28.4 26.6825 28.2712C26.6836 28.026 26.8475 27.8815 27.0563 27.7911L27.2538 28.1201C27.1679 28.1515 27.1188 28.1887 27.1186 28.2284C27.1179 28.4147 28.4523 28.5421 29.4729 28.5284C30.4937 28.515 31.7271 28.4257 31.7282 28.2422C31.7282 28.1866 31.6349 28.1344 31.4726 28.0932L31.6692 27.7665C31.9337 27.8537 32.1646 28.0222 32.1641 28.3137C32.1616 28.8095 31.5675 28.8848 31.1821 28.9404" fill="white"/>
<path d="M45.7321 2.89822C46.0171 2.54865 45.5846 1.6545 44.7661 0.901366C43.9473 0.14861 43.0524 -0.178443 42.7669 0.171126C42.4817 0.520695 42.9144 1.41484 43.7333 2.1676C44.5517 2.92055 45.4469 3.24798 45.7321 2.89822Z" fill="#D34A47"/>
<path d="M34.9036 62.5608C34.6349 59.8161 40.5569 55.8411 39.0371 55.7139C35.7654 55.9125 34.137 59.7854 32.4909 63.8417C31.8877 65.3283 29.8236 71.6675 28.4699 70.8871C27.1165 70.107 30.2245 64.8942 31.0956 61.7985C30.0905 62.5812 26.4042 65.6226 25.4542 62.7743C23.9268 64.1518 20.6632 64.898 21.0313 61.2797C20.2188 62.8081 18.3951 64.9419 16.2062 64.0552C13.3315 62.8911 17.8719 53.1671 19.0009 53.6577C20.13 54.148 18.773 56.3632 18.4176 57.2234C17.636 59.1164 16.733 61.4962 17.3362 61.9834C18.3696 62.818 21.1817 58.826 21.2443 58.7382C21.7702 58.0004 23.2686 53.173 24.4763 53.7273C25.684 54.2816 21.464 60.6553 23.0419 61.9202C23.3601 62.1755 24.6621 61.7628 25.4542 60.8528C25.9666 60.2642 25.7904 58.9603 27.4986 54.6342C29.2069 50.3083 30.7294 44.9209 31.901 45.3314C33.0726 45.7416 32.1069 48.5067 31.6866 49.5374C29.7144 54.3753 26.3039 62.3679 27.9123 61.7628C29.5207 61.1579 30.3582 61.1224 31.9332 59.1653C33.5081 57.2081 33.4355 53.9843 34.4853 54.0528C35.5354 54.1215 35.3591 55.1551 35.1045 55.9423C36.1377 54.6867 40.002 52.0424 40.935 54.6613C42.04 57.7618 35.4062 62.2404 37.0602 62.012C38.6729 61.7893 41.2855 60.0321 42.401 58.4345L45.4715 29.1207C45.4715 29.1207 42.3818 31.8359 22.7251 31.8359C3.06816 31.8359 0.298096 29.1771 0.298096 29.1771L2.91219 55.9337C4.29974 51.7459 7.59467 43.2753 12.7884 43.5597C15.1509 43.689 18.3048 48.5198 15.6032 48.6835C14.4596 48.7526 14.3435 46.2722 12.9894 45.908C12.0123 45.645 10.6519 46.4886 9.77266 47.4026C8.01927 49.2249 4.24817 56.4145 4.74644 59.9989C5.38128 64.5687 10.6848 58.411 11.5821 56.5828C12.2141 55.295 12.641 51.4795 14.0232 51.8799C15.4055 52.2802 13.9026 56.2178 12.9007 59.6992C11.7751 63.6083 11.1834 67.732 9.77266 67.2576C8.36175 66.7837 10.66 61.737 10.5768 60.8528C9.25067 62.1521 6.80763 65.4413 3.68215 63.8133L5.30563 80.4289C5.30563 80.4289 9.62046 84.0492 22.6185 84.0492C35.6166 84.0492 40.0911 80.4854 40.0911 80.4854L42.1071 61.2406C40.4577 62.946 35.2378 65.9746 34.9036 62.5608" fill="#D34A47"/>
</svg>

<svg width="46" height="108" fill="none" xmlns="http://www.w3.org/2000/svg"><path d="M35.449 104.708l.975-17.255 2.693-4.88s-6.129 2.661-16.389 2.661-16.296-2.613-16.296-2.613l3.018 5.325 1.068 16.762c0 1.797 5.58 3.254 12.465 3.254s12.466-1.457 12.466-3.254M32.373 24.13l2.047-8.592L45.754 2.872 42.767.17l-12 13.492-2.377 10.264a150.114 150.114 0 00-5.368-.094c-12.638 0-22.884 1.53-22.884 3.415 0 1.887 10.246 3.416 22.884 3.416 12.639 0 22.884-1.529 22.884-3.416 0-1.389-5.557-2.584-13.533-3.118" fill="#D34A47"/><path d="M31.182 28.94s-.443.106-1.747.112c-1.304.006-2.23-.01-2.6-.366-.099-.096-.153-.286-.152-.415 0-.245.165-.39.373-.48l.198.33c-.086.03-.135.068-.135.107-.001.187 1.333.314 2.354.3 1.02-.013 2.254-.102 2.255-.286 0-.055-.093-.108-.255-.149l.196-.326c.265.087.496.255.495.547-.002.495-.597.57-.982.626" fill="#fff"/><path d="M45.732 2.898c.285-.35-.147-1.244-.966-1.997-.819-.752-1.714-1.08-2-.73-.284.35.148 1.244.967 1.997.819.753 1.714 1.08 2 .73zM34.904 62.56c-.27-2.744 5.653-6.719 4.133-6.846-3.272.199-4.9 4.071-6.546 8.128-.603 1.486-2.667 7.826-4.021 7.045-1.354-.78 1.755-5.993 2.626-9.089-1.006.783-4.692 3.825-5.642.976-1.527 1.378-4.79 2.124-4.423-1.494-.812 1.528-2.636 3.662-4.825 2.775-2.874-1.164 1.666-10.888 2.795-10.397 1.129.49-.228 2.705-.583 3.565-.782 1.893-1.685 4.273-1.082 4.76 1.034.835 3.846-3.157 3.908-3.245.526-.738 2.025-5.565 3.232-5.01 1.208.554-3.012 6.927-1.434 8.192.318.255 1.62-.157 2.412-1.067.513-.589.336-1.893 2.045-6.219 1.708-4.326 3.23-9.713 4.402-9.303 1.172.41.206 3.176-.214 4.206-1.973 4.838-5.383 12.83-3.775 12.226 1.609-.605 2.446-.64 4.021-2.598 1.575-1.957 1.502-5.18 2.552-5.112 1.05.069.874 1.102.62 1.89 1.033-1.256 4.897-3.9 5.83-1.282 1.105 3.1-5.529 7.58-3.875 7.351 1.613-.223 4.225-1.98 5.341-3.578l3.07-29.313s-3.09 2.715-22.746 2.715C3.068 31.836.298 29.177.298 29.177l2.614 26.757C4.3 51.746 7.595 43.275 12.788 43.56c2.363.129 5.517 4.96 2.815 5.123-1.143.07-1.26-2.41-2.614-2.775-.977-.263-2.337.58-3.216 1.495-1.754 1.822-5.525 9.011-5.027 12.596.635 4.57 5.939-1.588 6.836-3.416.632-1.288 1.059-5.103 2.441-4.703 1.383.4-.12 4.338-1.122 7.82-1.126 3.908-1.718 8.032-3.128 7.558-1.411-.474.887-5.521.804-6.405-1.326 1.3-3.77 4.588-6.895 2.96L5.306 80.43s4.314 3.62 17.313 3.62c12.998 0 17.472-3.564 17.472-3.564l2.016-19.244c-1.65 1.705-6.87 4.734-7.203 1.32" fill="#D34A47"/></svg>
